Numix-Light-GalliumOS/scalable/devices/camera-web-symbolic.svg

<svg xmlns="http://www.w3.org/2000/svg" width="16" viewBox="0 0 16 16" height="16">
 <path d="m 6,13 0,1 4,0 0,-1 z m -2,2 0,1 8,0 0,-1 z" fill="#353535"/>
 <path d="M 8,0 C 4.6862915,0 2,2.6862915 2,6 2,9.3137085 4.6862915,12 8,12 11.313708,12 14,9.3137085 14,6 14,2.6862915 11.313708,0 8,0 z m 0,1 c 2.761423,0 5,2.2385762 5,5 0,2.7614238 -2.238577,5 -5,5 C 5.2385762,11 3,8.7614238 3,6 3,3.2385762 5.2385762,1 8,1 z" fill="#353535"/>
 <path d="M 8 2 C 5.790861 2 4 3.790861 4 6 C 4 8.209139 5.790861 10 8 10 C 10.209139 10 12 8.209139 12 6 C 12 3.790861 10.209139 2 8 2 z M 8 4 C 9.1045695 4 10 4.8954305 10 6 C 10 7.1045695 9.1045695 8 8 8 C 6.8954305 8 6 7.1045695 6 6 C 6 4.8954305 6.8954305 4 8 4 z " fill="#353535"/>
</svg>

<svg xmlns="http://www.w3.org/2000/svg" viewBox="0 0 16 16">
 <path d="m 6 13 0 1 4 0 0 -1 z m -2 2 0 1 8 0 0 -1 z" style="fill:#353535"/>
 <path d="m 8 0 c -3.314 0 -6 2.686 -6 6 0 3.314 2.686 6 6 6 3.314 0 6 -2.686 6 -6 0 -3.314 -2.686 -6 -6 -6 z m 0 1 c 2.761 0 5 2.239 5 5 0 2.761 -2.239 5 -5 5 c -2.761 0 -5 -2.239 -5 -5 0 -2.761 2.239 -5 5 -5 z" style="fill:#353535"/>
 <path d="m 8 2 c -2.209 0 -4 1.791 -4 4 c 0 2.209 1.791 4 4 4 c 2.209 0 4 -1.791 4 -4 c 0 -2.209 -1.791 -4 -4 -4 z m 0 2 c 1.105 0 2 0.895 2 2 c 0 1.105 -0.895 2 -2 2 c -1.105 0 -2 -0.895 -2 -2 c 0 -1.105 0.895 -2 2 -2 z" style="fill:#353535"/>
</svg>
